X:1
T:34.  A Merry Life
T:Denza
T:34.  A Merry Life
C:Denza
%%score { 1 | 2 }
L:1/8
M:6/8
K:Eb
V:1 treble nm="Piano" snm="Pno."
V:2 bass 
V:1
"^From the Italian" z3 z2"^Solo" B | %1
w: 1.~~~~~~Some|
w: 2.~~~~~~~~Ah,|
"^This is a Neapolitan song known in Italy as \"Funiculi-Funicula,\" so called because it was written to celebrate the opening of the funicular railroad (cars drawn by cable), up Mt. Vesuvius.  It became a popular street-song in Naples and has spread to all parts of the world.  It portrays the care-free life of the Italian idler." e6- | %2
w: think|
w: me,|
 e2 e d2 d | B2 B c2 c | G3 G3- | G2 G F2 E | E6- | E z"^Chorus" G F2 E | E6- | E2 z z2"^Solo" B | %10
w: * the world is|made for fun and|frolic, _|_ And so do|I!|* And so do|I!|* Some|
w: * 'tis strange that|some should take to|sighing, *|* And like it|well!|* And like it|well!|* For|
 e6- | e2 e d2 d | B2 B c2 c | G3 G3- | G2 G F2 E | E6- | E z"^Chorus" G F2 E | E6- | %18
w: think|* it well to|be all mel- an-|chol- ic,|* To pine and|sigh;|* To pine and|sigh;|
w: me,|* I have not|tho't it worth the|trying, *|* So can- not|tell!|* So can- not|tell!|
 E2 z z2"^Solo" G | G6- | G2 G =A2 A | G2 G =A2 A | G3 G3- | G2 D D2 D | D6- | %25
w: * But|I,|* I love to|spend my time in|sing- ing|* Some joy- ous|song,|
w: * With|laugh|* and dance and|song the day soon|pass- es,|* Full soon is|gone,|
 D z"^Chorus" D D2 D | D6- | D2 z z2"^Solo" B | B6- | B2 B c2 c | B2 B c2 c | B3 B3- | B2 F F2 F | %33
w: * Some joy- ous|song:|* To|set|* the air with|mu- sic bravely _|ring- ing|* Is far from|
w: * Full soon is|gone;|* For|mirth|* was made for|joy- ous lads and|lass- es|* To call their|
 F6- |!f! F z"^Chorus" F F2 F | F6- | F2 z z3 |!f!"^1st time Solo" [Bd]3 [Ac] z z | %38
w: wrong!|* Is far from|wrong!||Hark- en!|
w: own!|* To call their|own!|||
 [Bd]3 [Ac] z z | [ce]2 [Bd] [Ac]2 [ce] | [Bd]3- [Bd]2 z | [Bd]3 [Ac] z z | [Bd]3 [Ac] z z | %43
w: Hark- en!|Music * sounds a-|far! _|Hark- en!|Hark- en!|
w: |||||
 [ce]2 [Bd] [Ac]2 [ce] | [GB]!p! z [EG] [EG]2 [EG] | [FG]2 [FG] [FG]2 [FG] | %46
w: Music _ sounds a-|far! Tra- la- la|la, tra- la- la-|
w: |||
 [EG]2 [EG] [EG]2 [EG] | G2 G G2!mf!!<(! G | [ce]6!<)! |!f! [df]2!>(! [ce]!>)! [Ac]2 [ce] | %50
w: la, tra- la- la-|la, tra- la- la-|la!|Joy is ev'- ry|
w: ||||
 [GB] z [EG] [EG]2 [FA] | [GB]2 [FA] [EG]2 [DF] | E2 z z3 |] %53
w: where Tra- la- la-|la, tra- la- la-|la!|
w: |||
V:2
 z6 | z6 | z6 | z6 | z6 | z6 | z6 | z6 | z6 | z6 | z6 | z6 | z6 | z6 | z6 | z6 | z6 | z6 | z6 | %19
 z6 | z6 | z6 | z6 | z6 | z6 | z6 | z6 | z6 | z6 | z6 | z6 | z6 | z6 | z6 | z6 | z6 | z6 | %37
 B,3 B, z z | B,3 B, z z | B,2 B, B,2 B, | B,3- B,2 z | B,3 B, z z | B,3 B, z z | B,2 B, B,2 B, | %44
 [E,B,] z [E,B,] [E,B,]2 [E,B,] | [D,=B,]2 [D,B,] [D,B,]2 [D,B,] | [C,C]2 [C,C] [C,C]2 [C,C] | %47
 [=B,,D]2 [B,,D] [B,,D]2 [B,,D] | [C,C]6 | A,2 A, A,2 A, | B, z B, B,2 B, | %51
 B,2 [B,,B,] [B,,B,]2 [B,,A,] | [E,G,]2 z z3 |] %53

